svg/fluentui-system-icons/ic_fluent_shopping_bag_16_regular.svg

<svg width="16" height="16" viewBox="0 0 16 16" fill="none" xmlns="http://www.w3.org/2000/svg">
<path d="M5 5V3C5 1.89543 5.89543 1 7 1C7.36429 1 7.70584 1.0974 8.00002 1.26757C8.29419 1.0974 8.63574 1 9.00003 1C10.1046 1 11 1.89543 11 3V5H11.5C12.3284 5 13 5.67157 13 6.5V13C13 14.1046 12.1046 15 11 15H5C3.89543 15 3 14.1046 3 13V6.5C3 5.67157 3.67157 5 4.5 5H5ZM6 3V5H8V3C8 2.44772 7.55228 2 7 2C6.44772 2 6 2.44772 6 3ZM11 14C11.5523 14 12 13.5523 12 13V6.5C12 6.22386 11.7761 6 11.5 6H10V13C10 13.5523 10.4477 14 11 14ZM9 6H4.5C4.22386 6 4 6.22386 4 6.5V13C4 13.5523 4.44772 14 5 14H9.26756C9.09739 13.7058 9 13.3643 9 13V6ZM9 3V5H10V3C10 2.44772 9.55232 2 9.00003 2C8.91378 2 8.83009 2.01092 8.75025 2.03145C8.90939 2.31841 9 2.64862 9 3Z" fill="#212121"/>
</svg>

<svg xmlns="http://www.w3.org/2000/svg" width="16" height="16"><path d="M5 5V3a2 2 0 0 1 3-1.732A2 2 0 0 1 11 3v2h.5A1.5 1.5 0 0 1 13 6.5V13a2 2 0 0 1-2 2H5a2 2 0 0 1-2-2V6.5A1.5 1.5 0 0 1 4.5 5H5Zm1-2v2h2V3a1 1 0 0 0-2 0Zm5 11a1 1 0 0 0 1-1V6.5a.5.5 0 0 0-.5-.5H10v7a1 1 0 0 0 1 1ZM9 6H4.5a.5.5 0 0 0-.5.5V13a1 1 0 0 0 1 1h4.268A1.99 1.99 0 0 1 9 13V6Zm0-3v2h1V3a1 1 0 0 0-1.25-.969c.16.287.25.618.25.969Z"/></svg>
